!!!COM: Henri Duparc
!!!CNT: Francais
!!!TXO: Francais
!!!OTL: Lamento
!!!LYR: The/ophile Gautier
!!!ENC: Jacob Pegg
!!!YOR: Henri Duparc: Complete Songs for Voice and Piano
!!!YOR: New York: Dover publications, inc., 1995 
!!!YOR: ISBN 0-486-*28466-2
!!!ODT: 1883/
!!NB: Vocal melody and text only encoded.
**kern	**silbe
*clef G2	*
*k[b-]	*
*M4/4	*
*MM[lento]	*
!!created: 6/23/03 15:02
!!proofed and posted: 7/21/03 9:12
=3	=3
8r	.
{8a	{Con-
8g	-nais-
8f	-sez~
8f	~vous
8f	la
8g#	blan-
8g#	-che
=4	=4
4a	tom-
4d}	-be}
4r	.
{4a	{Ou\
=5	=5
8cc	flot-
8cc	-te a-
8cc	-vec
8cc	un
4.b-	son
8b-	plain-
=6	=6
4a}	-tif}
{4dd	{L'om-
4cc#	-bre
4ccn	d'un
=7	=7
2a}	if?}
4r	.
{4b-	{Sur
=8	=8
4a	l'if
8a	u-
8a	-ne
(8a	pa^-
8g)	|
8f	-le
8g	co-
=9	=9
4a	-lom-
8a}	-be,}
8r	.
8r	.
{4dd	{Tris-
8dd	-te et
=10	=10
4ee-	seule
8b-	au
8b-	so-
4.b-	-leil
8cc	cou-
=11	=11
1cc#}	-chant,}
=12	=12
{2dd	{Chan-
4cc#	-te
4ccn	son
=13	=13
1a;}	chant.}
=14	=14
{8a	{On
8a	di-
8g	-rait
8f	que
4f	l'a\me
8g#	e/-
8g#	veil-
=15	=15
4a	-le/-
4d}	-e}
8r	.
{8a	{Pleu-
8a	-re
8a	sous
=16	=16
[2cc	terre
8cc]	|
8b-	a\
8b-	l'u-
8b-	-nis-
=17	=17
4a	-son
4dd	De
4cc#	la
4ccn	chan-
=18	=18
2a}	-son,}
8r	.
{8b-	{Et
8b-	du
8b-	mal-
=19	=19
4a	-heur
[4a	d'e^tre
8a]	|
8g	|
8f	ou-
8g	-bli-
=20	=20
2a	-e-
8a}	-e}
8r	.
{4dd	{Se
=21	=21
4.ee-	plaint
8b-	dans
8b-	un
8b-	rou-
8b-	-cou-
8cc	-le-
=22	=22
1cc#}	-ment,}
=23	=23
{2dd	{Bien
4cc#	dou-
4ccn	-ce-
=24	=24
1a}	ment.}
!! 3mm. rest
=28	=28
4r	.
{2ff	{Ah!
8ff	ja-
8ff	-mais
=29	=29
2ee}	plus}
8r	.
{8dd	{pre\s
8dd	de
8dd	la
=30	=30
*M2/4	*
8cc	tom-
8cc}	-be}
{8dd	{Je
8ee-	n'i-
=31	=31
*M4/4	*
2ee-	-rai,
8b-	quand
8b-	des-
8b-	-cend
8b-	le
=32	=32
(4a	soir
4dd	Au
4cc#	man-
4ccn)	-teau
=33	=33
2a}	noir,}
4r	.
{8a#	{E-
8a#	-cou-
=34	=34
8a#	-ter
8cc#	la
2ee	pa^-
8dd#	-le
8cc#	co-
=35	=35
2bn	-lom-
8bn}	-be}
8r	.
{4f#	{Chan-
=36	=36
4g#	-ter,
8g#	sur
8g#	la
4g#	bran-
8a#	-che
8bn	de
=37	=37
[2ccn	l'if,
8ccn]}	|}
8r	.
4r	.
=38	=38
4r	.
{4cc#	{Son
4.cc#	chant
8dd	plain-
=39	=39
2dd}	-tif!}
2r	.
*-	*-
